svgs/light/copy.svg

<svg xmlns="http://www.w3.org/2000/svg" viewBox="0 0 512 512"><!-- Font Awesome Pro 6.0.0-alpha2 by @fontawesome - https://fontawesome.com License - https://fontawesome.com/license (Commercial License) --><path d="M272 416C263.164 416 256 423.162 256 432V448C256 465.672 241.674 480 224 480H64C46.326 480 32 465.672 32 448V192C32 174.326 46.326 160 64 160H176C184.836 160 192 152.836 192 144C192 135.162 184.836 128 176 128H64C28.654 128 0 156.652 0 192V448C0 483.346 28.654 512 64 512H224C259.346 512 288 483.346 288 448V432C288 423.162 280.836 416 272 416ZM502.627 86.627L425.373 9.373C419.371 3.371 411.232 0 402.746 0H288C252.654 0 224 28.652 224 64V320C224 355.346 252.654 384 288 384H448C483.346 384 512 355.346 512 320V109.254C512 100.768 508.629 92.629 502.627 86.627ZM416 45.254L466.746 96H416V45.254ZM480 320C480 337.672 465.674 352 448 352H288C270.326 352 256 337.672 256 320V64C256 46.326 270.326 32 288 32H384V96C384 113.672 398.326 128 416 128H480V320Z"/></svg>

<svg xmlns="http://www.w3.org/2000/svg" viewBox="0 0 512 512"><!--! Font Awesome Pro 6.4.0 by @fontawesome - https://fontawesome.com License - https://fontawesome.com/license (Commercial License) Copyright 2023 Fonticons, Inc. --><path d="M448 352H288c-17.7 0-32-14.3-32-32V64c0-17.7 14.3-32 32-32H396.1c4.2 0 8.3 1.7 11.3 4.7l67.9 67.9c3 3 4.7 7.1 4.7 11.3V320c0 17.7-14.3 32-32 32zM497.9 81.9L430.1 14.1c-9-9-21.2-14.1-33.9-14.1H288c-35.3 0-64 28.7-64 64V320c0 35.3 28.7 64 64 64H448c35.3 0 64-28.7 64-64V115.9c0-12.7-5.1-24.9-14.1-33.9zM64 128c-35.3 0-64 28.7-64 64V448c0 35.3 28.7 64 64 64H224c35.3 0 64-28.7 64-64V416H256v32c0 17.7-14.3 32-32 32H64c-17.7 0-32-14.3-32-32V192c0-17.7 14.3-32 32-32H192V128H64z"/></svg>
